assets/images/briefcase.svg

<svg width="24" height="24" viewBox="0 0 24 24" fill="none" xmlns="http://www.w3.org/2000/svg">
<path d="M7.99983 22H15.9998C20.0198 22 20.7398 20.39 20.9498 18.43L21.6998 10.43C21.9698 7.99 21.2698 6 16.9998 6H6.99983C2.72983 6 2.02983 7.99 2.29983 10.43L3.04983 18.43C3.25983 20.39 3.97983 22 7.99983 22Z" fill="#F3EDFF"/>
<path d="M8 6V5.2C8 3.43 8 2 11.2 2H12.8C16 2 16 3.43 16 5.2V6" stroke="#C6AAFF" stroke-width="1.5" stroke-miterlimit="10" stroke-linecap="round" stroke-linejoin="round"/>
<path d="M14 13V14C14 14.01 14 14.01 14 14.02C14 15.11 13.99 16 12 16C10.02 16 10 15.12 10 14.03V13C10 12 10 12 11 12H13C14 12 14 12 14 13Z" stroke="#C6AAFF" stroke-width="1.5" stroke-miterlimit="10" stroke-linecap="round" stroke-linejoin="round"/>
<path d="M21.38 11C19.1515 12.6689 16.6047 13.6623 14 14" stroke="#C6AAFF" stroke-width="1.5" stroke-miterlimit="10" stroke-linecap="round" stroke-linejoin="round"/>
<path d="M2.61914 11.2695C4.86914 12.8095 7.40914 13.7395 9.99914 14.0295" stroke="#C6AAFF" stroke-width="1.5" stroke-miterlimit="10" stroke-linecap="round" stroke-linejoin="round"/>
<path d="M8.0008 22H16.0008C20.0208 22 20.7408 20.39 20.9508 18.43L21.7008 10.43C21.9708 7.99 21.2708 6 17.0008 6H7.0008C2.7308 6 2.0308 7.99 2.3008 10.43L3.0508 18.43C3.2608 20.39 3.9808 22 8.0008 22Z" stroke="#8447FF" stroke-width="1.5" stroke-miterlimit="10" stroke-linecap="round" stroke-linejoin="round"/>
</svg>

<svg width="24" height="24" fill="none" xmlns="http://www.w3.org/2000/svg"><path d="M8 22h8c4.02 0 4.74-1.61 4.95-3.57l.75-8C21.97 7.99 21.27 6 17 6H7c-4.27 0-4.97 1.99-4.7 4.43l.75 8C3.26 20.39 3.98 22 8 22Z" fill="#F3EDFF"/><path d="M8 6v-.8C8 3.43 8 2 11.2 2h1.6C16 2 16 3.43 16 5.2V6M14 13v1.02c0 1.09-.01 1.98-2 1.98-1.98 0-2-.88-2-1.97V13c0-1 0-1 1-1h2c1 0 1 0 1 1ZM21.38 11A15.641 15.641 0 0 1 14 14M2.62 11.27c2.25 1.54 4.79 2.47 7.38 2.76" stroke="#C6AAFF" stroke-width="1.5" stroke-miterlimit="10" stroke-linecap="round" stroke-linejoin="round"/><path d="M8 22h8c4.02 0 4.74-1.61 4.95-3.57l.75-8C21.97 7.99 21.27 6 17 6H7c-4.27 0-4.97 1.99-4.7 4.43l.75 8C3.26 20.39 3.98 22 8 22Z" stroke="#8447FF" stroke-width="1.5" stroke-miterlimit="10" stroke-linecap="round" stroke-linejoin="round"/></svg>
